!! 00048] TT[KA
!! NN
!!!OTL: Ba Huangshan bianchen fu cunzhuang
!!!ARE: Asia, China,ÿZhejiang, Ningbo
!! Ethnic Group: Han
!! III, 609
!!!SCT: C0357
!!!YEM: Copyright 1995, estate of Helmut Schaffrath.
**kern
*ICvox
*Ivox
*M2/4
*k[f#c#]
*D:
{4b
8ff#
8ee
=1
8ee
8dd
8b
8a
=2
8b
8dd
8ee
8b
=3
2dd}
=4
{8a
8b
4dd
=5
8b
8dd
8f#
8a
=6
4b
8a
8f#
=7
2a}
=8
{8a
8b
4dd
=9
4ee
8dd
8b
=10
8a
8b
8dd
8cc#
=11
2b}
=12
{8.dd
16b
8a
8dd
=13
8b
8a
8a
8b
=14
2f#}
=15
{8.ff#
16ee
8dd
8ee
=16
2b}
=17
{8.dd
16b
8a
8dd
=18
8b
8a
8a
8b
=19
2f#}
==
!!!AGN: Xiaodiao, Madeng diao, Wuge, Zhuma. Xin minge
!! Ein Mann steht in einem Papierpferd. In Shanghai, Zhejiang und
!!    Vor- und Zwischenspiel weggelassen.
!!!ONB: ESAC (Essen Associative Code) Database: CHINA
!!!AMT: simple duple
!!!AIN: vox
!!!EED: Helmut Schaffrath
!!!EEV: 1.0
*-
